material/.icons/material/collage.svg

<svg xmlns="http://www.w3.org/2000/svg" viewBox="0 0 24 24"><path d="M5 3c-1.11 0-2 .89-2 2v14c0 1.11.89 2 2 2h6V3m2 0v8h8V5c0-1.11-.89-2-2-2m-6 10v8h6c1.11 0 2-.89 2-2v-6"/></svg>

<?xml version="1.0" encoding="UTF-8"?><!DOCTYPE svg PUBLIC "-//W3C//DTD SVG 1.1//EN" "http://www.w3.org/Graphics/SVG/1.1/DTD/svg11.dtd"><svg xmlns="http://www.w3.org/2000/svg" xmlns:xlink="http://www.w3.org/1999/xlink" version="1.1" id="mdi-collage" width="24" height="24" viewBox="0 0 24 24"><path d="M5,3C3.89,3 3,3.89 3,5V19C3,20.11 3.89,21 5,21H11V3M13,3V11H21V5C21,3.89 20.11,3 19,3M13,13V21H19C20.11,21 21,20.11 21,19V13" /></svg>
